X: 916
T: Gûş Eyle Bülbülleri
C: Dede Efendi
O: Turkey
F: http://compmusic.upf.edu/node/140
N: saba--sarki--agirduyek--gus_eyle--dede_efendi
N: makam= saba
N: form= sarki
N: usul= agirduyek = 8/4
M: 8/4
L: 1/16
K: C _2/4B _3/4d  
Q: 1/4=60
%%MIDI tuningsystem comma53
c4 B2c2 d3/2c/de d2c2 c3d c2dB A4 z4  | \
w:  Gûş_ *  *  *  *  *  *  *  *  ey *  *  *  *  le   | 
A2B2 G2A2 B2c2 A2B2 c2d2 c2B2 c3/2B/ce d4  | 
w:  gel   | 
d2z2 c2d2 e2f2 g2a2 g2f2 e2d2 c3B A2e2  | \
w:  *  bül *  *  *  *  *  bül *  *  *  *  *  *  le  | 
d3c B2c2 B2c2 d3/2e/dc c4 efg6 z4  | 
w:  ri   *  *  *  *  *  *  *  *  *  *  SAZ  | 
f4 g12 _7/8a3g gffe f6f2  | e2f2 g2_7/8a2 _1/4b3a g3f e3d d3c c3B A4  | 
w:  Nûş_ *  ey *  *  *  *  *  *  le   |  cam_  | 
A2z2 G2A2 B2c2 dedc c2c=d c3B cBBA A2A2  | 
w:  *  ı  *  *  *  *  *  *  *  mül *  *  *  *  *  *  *  *  *  le   | 
A2c4BA A2z2 a4 a3g ^fga_1/4b g2a4z2  | \
w:  ri   SAZ *  *  *  a  ca *  *  *  *  *  nım    | 
g4 a12 a2_1/4b2 a2b2 g4 z4  | 
w:  Ruh *  sa *  *  *  re   | 
a2_1/4b2 g2a2 b2c'2 a2b2 c'2=d'4c'b d'c'ba g4  | \
w:  saç   | 
z2g4=d'2 c'3e' d'3c' c'3_1/4b b3a a3/2c'/ba a4  | 
w:  sün *  *  *  *  *  bül *  *  *  le  | 
g3_7/8b a2g2 fefa g2f2 efga c'_1/4bag gfe=d c4  | 
w:  ri    | 
f4 g8 z4 _7/8a3g gffe f6c'2  | c'3_1/4b b3a a3g g3f f3e e3d d3c c2(3BAB  | 
w:  Ruh *  sa *  *  *  *  *  *  re   |  saç   | 
c2z2 c2d2 e2f2 g2_7/8a2 g2f2 e2d2 dccB A2e2  | \
w:  *  sün *  *  *  *  *  bül *  *  *  *  *  *  *  *  le  | 
ed2c B2c2 B2c2 d3/2e/dc c4 z2ef g8  | 
w:  ri   *  *  *  *  *  *  *  *  *  *  *  SAZ  | 
f4 g12 _7/8a3g gffe f6f2  | e2f2 g2_7/8a2 _1/4b3a g3f e3d d3c c3B A4  | 
w:  Nûş_ *  ey *  *  *  *  *  *  le   |  cam_  | 
A2z2 G2A2 B2c2 dedc c2c=d c3B cBBA A2A2  | 
w:  *  ı  *  *  *  *  *  *  *  mül *  *  *  *  *  *  *  *  *  le   | 
A2A2 c4 BAA6 z16  | |


